!!!COM: Dunstable, John
!!!OTL: Gloria sanctorum
!!!ONM: No. 43
!!!YOR: from: "Musica Britannica" Vol. 8, edited by Manfred F. Bukofzer,
!!!YOR: 2nd rev. ed. (prepared by Margaret Bent, Ian Bent & Brian Trowell), pp.111-112
!!!YOO: Royal Musical Association (London)
!!!YOY: 1970
**kern	**kern	**kern
*ICvox	*ICvox	*ICvox
! tenor	! contratenor	! discantus
*M3/4	*M3/4	*M3/4
=1	=1	=1
*>A1	*>A1	*>A1
!! Section 'A1'; (O) mensuration.
2.r	2.g	[2.g
=2	=2	=2
2.r	4.e	2.g]
.	8c	.
.	8e	.
.	8f	.
=3	=3	=3
2.r	12g	4e
.	12f	.
.	12g	.
.	4a	2f
.	4f	.
=4	=4	=4
2.r	2e	2g
.	4c	4a
=5	=5	=5
2.r	4A	2a
.	2c	.
.	.	4g
=6	=6	=6
2.r	4r	4e
.	4d	[2d
.	[4f	.
=7	=7	=7
2.r	4f]	2d]
.	2e	.
.	.	4c#
=8	=8	=8
2.r	2.d	4d
.	.	4r
.	.	4d
=9	=9	=9
2.r	2r	4f
.	.	8g
.	.	4a
.	4d	.
.	.	8g
=10	=10	=10
2.r	2.c	8a
.	.	8b
.	.	4cc
.	.	8b
.	.	[8a
=11	=11	=11
2.r	4A	8a]
.	.	8g
.	8B-	8f
.	4c	8e
.	.	8f
.	8d	[8d
=12	=12	=12
2.r	4B-	8d]
.	.	8g
.	8d	8f
.	8c	8g
.	4A	8a
.	.	8f#x
=13	=13	=13
*>A2	*>A2	*>A2
!! Section 'A2'; (O) mensuration.
[2.G	2.G	2.g
=14	=14	=14
2.G_	2g	2.r
.	4f	.
=15	=15	=15
2.G]	4e	2g
.	2d	.
.	.	4f
=16	=16	=16
2.c	2c	2e
.	4B-	4d
=17	=17	=17
2.e	2.A	2c
.	.	[4e
=18	=18	=18
4g	4G	4e]
4f	4d	4a
[4e	4e	4g
=19	=19	=19
4e]	4r	2b
2d	2f	.
.	.	4a
=20	=20	=20
[2.c	2.g	12cc
.	.	12b
.	.	12cc
.	.	8dd
.	.	8cc
.	.	8b
.	.	8a
=21	=21	=21
2c]	2.r	4g
.	.	8r
.	.	8g
4B-	.	8a
.	.	8f
=22	=22	=22
4B-	4d	4f
2d	2f	4r
.	.	4d
=23	=23	=23
2c	4e	4a
.	4c	8g
.	.	4cc
8A	8f	.
8G	[8g	8b
=24	=24	=24
4B-	8g]	8g
.	8d	4a
8c	8e	.
8G	4d	8g
4A	.	8f#x
.	8c#x	8e
=25	=25	=25
2.G	2d	2.g
.	4G	.
=26	=26	=26
[2.f	4B-	2r
.	4.A	.
.	.	4f
.	8F	.
=27	=27	=27
2.f_	2.F	4.a
.	.	8b-x
.	.	8cc
.	.	8a
=28	=28	=28
2.f]	2.A	4cc
.	.	4dd
.	.	8cc
.	.	8b
=29	=29	=29
2.g	2G	2b
.	[4c	4g
=30	=30	=30
2e	4c]	4r
.	4A	2cc
4f	4F	.
=31	=31	=31
2d	2.G	4dd
.	.	2b
4e	.	.
=32	=32	=32
2c	2.r	4cc
.	.	2a
4d	.	.
=33	=33	=33
2e	4c	4g
.	2G	2b
4d	.	.
=34	=34	=34
2f	2F	4a
.	.	4.cc
[4e	[4c	.
.	.	8b
=35	=35	=35
4e]	4c]	4g
2d	2d	12cc
.	.	12b
.	.	12cc
.	.	8a
.	.	8b
=36	=36	=36
[2.c	2e	2.cc
.	4g	.
=37	=37	=37
2.c]	8f	2r
.	4a	.
.	8g	.
.	8e	4cc
.	8f	.
=38	=38	=38
2G	2g	4.dd
.	.	8b
[4d	4d	8cc
.	.	8a
=39	=39	=39
4d]	4f	4b
[2e	4e	8g
.	.	4cc
.	4c	.
.	.	8b
=40	=40	=40
2e]	2c	4.g
.	.	8e
[4d	4d	8f
.	.	8d
=41	=41	=41
2.d]	4B-	4f
.	2G	8g
.	.	4b-
.	.	8a
=42	=42	=42
4c	4c	4.a
2B-	2d	.
.	.	8b-x
.	.	8g
.	.	8f
=43	=43	=43
4A	4.e	4a
2c	.	4r
.	8c	.
.	8e	4cc
.	8f	.
=44	=44	=44
4e	4g	2cc
2d	8a	.
.	4f	.
.	.	4b
.	8e	.
=45	=45	=45
2.c	8g	4.cc
.	8f	.
.	8e	.
.	8d	8b
.	4c	8a
.	.	8g
=46	=46	=46
4r	8G	4.g
.	4B-	.
4B-	.	.
.	8d	8f
8A	8f	4a
[8c	8e	.
=47	=47	=47
8c]	4g	2.r
8G	.	.
8B-	8f	.
8c	4a	.
4d	.	.
.	8g	.
=48	=48	=48
4d	8f	4.a
.	8d	.
4c	8e	.
.	8g	8b
4A	4f#x	8cc
.	.	8b
=49	=49	=49
2G	4g	8.dd
.	.	16b
.	2r	8cc
.	.	8dd
4d	.	8.b
.	.	16g
=50	=50	=50
4e	4.g	8cc
.	.	4dd
2d	.	.
.	8f	8a
.	4d	4b
=51	=51	=51
2c	4.e	4cc
.	.	8a
.	8c	4g
4G	4d	.
.	.	8d
=52	=52	=52
4B-	8G	8g
.	2d	4a
2A	.	.
.	.	8g
.	.	8f#x
.	8c#x	8e
=53	=53	=53
[2.G	[2.d	[2.g
=53a	=53a	=53a
2.G]	2.d]	2.g]
*M2/2	*M2/2	*M2/2
=54	=54	=54
*>B1	*>B1	*>B1
!! Section 'B1'; (C) mensuration.
1r	2.d	2.d
.	4c	4e
=55	=55	=55
1r	4A	2f
.	2B-	.
.	.	2g
.	[4c	.
=56	=56	=56
1r	4c]	4a
.	4A	2a
.	[2d	.
.	.	4f
=57	=57	=57
1r	2d]	4a
.	.	4b
.	4c	2cc
.	[4e	.
=58	=58	=58
1r	4e]	4b
.	4d	2dd
.	2f	.
.	.	4a
=59	=59	=59
*M3/2	*M3/2	*M3/2
1.r	2e	4cc
.	.	4.b
.	4r	.
.	.	8g
.	4g	2g
.	2a	.
.	.	4f#x
=60	=60	=60
*M2/2	*M2/2	*M2/2
1r	4g	2g
.	2e	.
.	.	4r
.	4c	4cc
=61	=61	=61
1r	2e	4b
.	.	12cc
.	.	12b
.	.	12cc
.	2d	3dd
.	.	6b
=62	=62	=62
1r	2c	2cc
.	2r	4b
.	.	[4g
=63	=63	=63
1r	2d	4g]
.	.	4f
.	4c	4a
.	[4c	4g
=64	=64	=64
1r	4c]	2e
.	2G	.
.	.	4d
.	4A	4f
=65	=65	=65
1r	4G	4g
.	2B-	4r
.	.	2a
.	[4c	.
=66	=66	=66
1r	4c]	4g
.	4B-	2g
.	2A	.
.	.	4f#x
=67	=67	=67
*>B2	*>B2	*>B2
!! Section 'B2'; (C) mensuration.
1G	2G	2g
.	2d	2r
=68	=68	=68
1c	2c	2g
.	2F	2a
=69	=69	=69
4r	2B-	2g
4G	.	.
[2B-	2r	4d
.	.	4f
=70	=70	=70
2B-]	2d	4g
.	.	2a
4A	4e	.
[4d	4f	4f
=71	=71	=71
4d]	2d	2b-
4B-	.	.
4d	4r	4a
4c	4e	8.a
.	.	16g
=72	=72	=72
2A	4c	8g
.	.	8a
.	2e	4f
2B-	.	4g
.	4d	8f
.	.	8g
=73	=73	=73
2A	2e	2a
[2d	4r	4r
.	4d	4f
=74	=74	=74
2d]	2f	4a
.	.	12b
.	.	12a
.	.	12b
2c	4g	4cc
.	4e	4g
=75	=75	=75
1d	2f	4b-
.	.	4a
.	2d	4f
.	.	4g
=76	=76	=76
4r	2c	2a
4A	.	.
2B-	2d	4g
.	.	[4g
=77	=77	=77
2c	4e	4g]
.	4c	4f
4B-	4d	4d
[4B-	4G	[4g
=78	=78	=78
4B-]	4d	4g]
4A	4c	4f
2G	2Bnx	4e
.	.	8d
.	.	8e
=79	=79	=79
1F	1c	1f
=80	=80	=80
*>C	*>C	*>C
!! Section 'C'; (O) mensuration.
*M3/4	*M3/4	*M3/4
2.c	2.e	2c
.	.	[4g
=81	=81	=81
4B-	2.r	4g]
4A	.	4a
4d	.	4f
=82	=82	=82
2d	2d	4.a
.	.	8b
[4e	[4c	4g
=83	=83	=83
4e]	4c]	4g
2d	2f	4.b
.	.	8a
=84	=84	=84
4c	2g	4cc
4B	.	4dd
4c	4e	4cc
=85	=85	=85
4e	4c	2cc
2d	2f	.
.	.	4b
=86	=86	=86
2c	2e	4g
.	.	4.a
[4B-	4d	.
.	.	8g
=87	=87	=87
4B-]	2d	4.g
2A	.	.
.	.	4f#x
.	4c	.
.	.	8e
=88	=88	=88
[2.B-	2d	2.g
.	4e	.
=89	=89	=89
2.B-]	4.g	2r
.	8f	.
.	8e	4g
.	8d	.
=90	=90	=90
2d	2d	4.a
.	.	8f
4e	4G	4g
=91	=91	=91
2f	2F	8a
.	.	8b-x
.	.	4cc
4e	[4c	8dd
.	.	8cc
=92	=92	=92
4c	4c]	4cc
2d	2f	4b
.	.	8cc
.	.	8a
=93	=93	=93
2.c	2.e	2cc
.	.	4a
=94	=94	=94
2f	2d	4r
.	.	4.dd
[4e	4G	.
.	.	8cc
=95	=95	=95
4e]	4c	4cc
4d	4d	8b
.	.	8a
4c	4e	[4cc
=96	=96	=96
4r	8c	8cc]
.	4e	8b
8c	.	8a
8B-	8d	8g
4A	4c	4f
=97	=97	=97
4G	2d	4.g
4.B-	.	.
.	.	8f
.	8G	8d
8c	8A	8e
=98	=98	=98
2d	4B	4f
.	4r	8g
.	.	4b-
[4c	4c	.
.	.	8a
=99	=99	=99
4c]	2c	2a
2B-	.	.
.	4d	4g
=100	=100	=100
4A	2e	4.a
4.c	.	.
.	.	8g
.	4d	4g
8B-	.	.
=101	=101	=101
4B-	[2.d	4d
4G	.	4g
[4B-	.	8a
.	.	8g
=102	=102	=102
4B-]	2d]	2g
2A	.	.
.	4c#x	8f#x
.	.	8e
=103	=103	=103
[2.G	[2.d	[2.g
=104	=104	=104
2.G]	2.d]	2.g]
==	==	==
*-	*-	*-
!!!ENC: Mark Laxton
!!!EDD: Mark Laxton
!!!YEC: Mark Laxton, 1987
!!!EMD: Reference records added by D. Huron, 2001
!!!EEV: 1.1
